svg/OSM-icons/shop #ac39ac °ffffff !label=enshops,deLäden/29149;shop=video;!name=;[shop];!label=envideos,deVideothek.svg

<svg xmlns="http://www.w3.org/2000/svg" viewBox="0 0 580 580" enable-background="new 0 0 580 580"><path fill="#111" stroke="#eee" stroke-width="3.408" d="m66.28 1.768c-41.34 0-64.57 21.371-64.57 65.04v450.12c0 40.844 20.895 62.23 62.19 62.23h452.02c41.31 0 62.23-20.315 62.23-62.23v-450.12c0-42.602-20.923-65.04-63.52-65.04-.003 0-448.5-.143-448.35 0z"/><path fill="#fff" d="m283.82 36.625l-187.96 90.44 200.31 416.31 187.96-90.44-200.31-416.31m155.11 344.14l-13.799 6.641-10.724-22.284 13.8-6.642 10.723 22.285m-24.421-50.755l-13.8 6.639-10.723-22.285 13.799-6.639 10.724 22.285m-24.423-50.757l-13.8 6.64-10.724-22.286 13.801-6.64 10.723 22.286m-8.448 38.737l-128.5 61.832-.005-.001-.004.002-59.28-123.19 128.5-61.832.005.011.007-.002 59.27 123.19m-15.975-89.49l-13.799 6.64-10.725-22.286 13.8-6.64 10.724 22.286m-24.422-50.756l-13.8 6.64-10.724-22.285 13.799-6.64 10.725 22.285m-24.423-50.757l-13.8 6.64-10.724-22.285 13.8-6.64 10.724 22.285m-35.14-73.04l10.724 22.285-13.8 6.64-10.724-22.286 13.8-6.639m-24.447 5.499l.004.011.006-.002 59.27 123.19-128.5 61.832-.003-.009-.004.002-59.28-123.19 128.5-61.832m-148.39 77.67l13.8-6.64 10.723 22.286-13.799 6.64-10.724-22.286m24.423 50.756l13.8-6.64 10.723 22.285-13.8 6.64-10.723-22.285m24.422 50.757l13.799-6.64 10.725 22.285-13.801 6.64-10.723-22.285m24.422 50.757l13.8-6.641 10.724 22.285-13.799 6.642-10.725-22.286m24.422 50.756l13.799-6.639 10.725 22.285-13.8 6.639-10.724-22.285m24.422 50.757l13.801-6.641 10.723 22.285-13.799 6.641-10.725-22.285m24.424 50.756l13.8-6.641 10.724 22.285-13.801 6.641-10.723-22.285m35.15 73.04l-10.724-22.284 13.8-6.642 10.723 22.287-13.799 6.639m27.744.487l-.004-.008-.004.002-59.28-123.19 128.5-61.83.006.012.006-.004 59.27 123.19-128.5 61.833m120.57-99.29l13.8-6.641 10.723 22.284-13.8 6.642-10.723-22.285"/></svg>

<?xml version="1.0" encoding="utf-8"?>
<!-- Generator: Adobe Illustrator 15.0.0, SVG Export Plug-In . SVG Version: 6.00 Build 0)  -->
<!DOCTYPE svg PUBLIC "-//W3C//DTD SVG 1.1//EN" "http://www.w3.org/Graphics/SVG/1.1/DTD/svg11.dtd">
<svg version="1.1" xmlns="http://www.w3.org/2000/svg" xmlns:xlink="http://www.w3.org/1999/xlink" x="0px" y="0px" width="580px"
	 height="580px" viewBox="0 0 580 580" enable-background="new 0 0 580 580" xml:space="preserve">
<g id="Layer_1">
	<g id="Layer_2">
		<g id="g1327">
			<path id="path1329" fill="#111111" stroke="#EEEEEE" stroke-width="3.408" d="M66.275,1.768
				c-41.335,0-64.571,21.371-64.571,65.036v450.123c0,40.844,20.895,62.229,62.192,62.229h452.024
				c41.307,0,62.229-20.315,62.229-62.229V66.804c0-42.602-20.923-65.036-63.521-65.036C514.625,1.768,66.133,1.625,66.275,1.768z"
				/>
		</g>
	</g>
</g>
<g id="Layer_2_1_">
	<g id="Layer_2_2_">
		<path fill="#FFFFFF" d="M283.821,36.625l-187.958,90.44l200.315,416.31l187.958-90.439L283.821,36.625z M438.927,380.763
			l-13.799,6.641l-10.724-22.284l13.8-6.642L438.927,380.763z M414.506,330.008l-13.8,6.639l-10.723-22.285l13.799-6.639
			L414.506,330.008z M390.083,279.251l-13.8,6.64l-10.724-22.286l13.801-6.64L390.083,279.251z M381.635,317.988L253.132,379.82
			l-0.005-0.01l-0.004,0.002L193.846,256.62l128.503-61.832l0.005,0.011l0.007-0.002L381.635,317.988z M365.66,228.494l-13.799,6.64
			l-10.725-22.286l13.8-6.64L365.66,228.494z M341.238,177.738l-13.8,6.64l-10.724-22.285l13.799-6.64L341.238,177.738z
			 M316.815,126.981l-13.8,6.64l-10.724-22.285l13.8-6.64L316.815,126.981z M281.67,53.939l10.724,22.285l-13.8,6.64L267.87,60.578
			L281.67,53.939z M257.223,59.438l0.004,0.011l0.006-0.002l59.274,123.19l-128.504,61.832l-0.003-0.009l-0.004,0.002
			L128.719,121.27L257.223,59.438z M108.833,137.103l13.8-6.64l10.723,22.286l-13.799,6.64L108.833,137.103z M133.256,187.859
			l13.8-6.64l10.723,22.285l-13.8,6.64L133.256,187.859z M157.678,238.616l13.799-6.64l10.725,22.285l-13.801,6.64L157.678,238.616z
			 M182.1,289.373l13.8-6.641l10.724,22.285l-13.799,6.642L182.1,289.373z M206.522,340.129l13.799-6.639l10.725,22.285l-13.8,6.639
			L206.522,340.129z M230.944,390.886l13.801-6.641l10.723,22.285l-13.799,6.641L230.944,390.886z M255.368,441.642l13.8-6.641
			l10.724,22.285l-13.801,6.641L255.368,441.642z M290.514,514.683l-10.724-22.284l13.8-6.642l10.723,22.287L290.514,514.683z
			 M318.258,515.17l-0.004-0.008l-0.004,0.002L258.973,391.97l128.502-61.83l0.006,0.012l0.006-0.004l59.274,123.189L318.258,515.17
			z M438.828,415.875l13.8-6.641l10.723,22.284l-13.8,6.642L438.828,415.875z"/>
	</g>
</g>
</svg>
